X:177
T: Der Morgenstern (2-80) S. 237
N: P0952
O: Lothringen
S: PINCK, Louis: Verklingende Weisen, Bd 2, Metz 1928]
N: wahrscheinlich Taktfehler in Takt 3 (5 Achtel), tatschlich 6/8;
N: 5_4_3b_1_43b zu 5_4_3b_1_4_3b_ umgendert
R: Liebesleid, vergebliche Werbung]
M: 6/8
L: 1/16
K: G
D2 | G2A2_B2A2B2c2 | A2G4z4
dc | d2c2_B2G2c2B2 | A6z4
_B2 | A2_B2c2d2c2d2 | G4=F2F6 |
G3A2_Bc3BA2 | _B2A2G4z2

@@@ Tune index: 7727
